Newaita-dark/apps/48/smartgit.svg

<svg height="48pt" viewBox="0 0 48 48" width="48pt" xmlns="http://www.w3.org/2000/svg" xmlns:xlink="http://www.w3.org/1999/xlink"><linearGradient id="a" gradientUnits="userSpaceOnUse" x1="23.81478" x2="23.81478" y1="42.0509045" y2="44.03547050005"><stop offset="0" stop-opacity=".27451"/><stop offset="1" stop-opacity="0"/></linearGradient><linearGradient id="b"><stop offset="0" stop-opacity=".313726"/><stop offset=".222222" stop-opacity=".27451"/><stop offset="1" stop-opacity="0"/></linearGradient><radialGradient id="c" cx="450.908936" cy="189.579361" gradientTransform="matrix(.00000026 -.117199 -.210958 -.00000015 79.684395 95.392999)" gradientUnits="userSpaceOnUse" r="21.166656" xlink:href="#b"/><radialGradient id="d" cx="450.908936" cy="189.579361" gradientTransform="matrix(-.00000026 .117199 .210958 .00000015 -31.80678 -11.291218)" gradientUnits="userSpaceOnUse" r="21.166656" xlink:href="#b"/><radialGradient id="e" cx="450.908936" cy="189.579361" gradientTransform="matrix(-.00000026 -.117199 .210958 -.00000015 -31.80678 95.392999)" gradientUnits="userSpaceOnUse" r="21.166656" xlink:href="#b"/><radialGradient id="f" cx="450.908936" cy="189.579361" gradientTransform="matrix(.00000026 .117199 -.210958 .00000015 79.684393 -11.291219)" gradientUnits="userSpaceOnUse" r="21.166656" xlink:href="#b"/><linearGradient id="g" gradientUnits="userSpaceOnUse" x1="23.814786" x2="23.814786" y1="42.0509015" y2="4.34415649995"><stop offset="0" stop-color="#e0e0e0"/><stop offset="1" stop-color="#eee"/></linearGradient><linearGradient id="h" gradientUnits="userSpaceOnUse" x1="16.41518525005" x2="16.41518525005" y1="42.84754809362" y2="5.14080449995"><stop offset="0" stop-color="#7e57c2"/><stop offset="1" stop-color="#9575cd"/></linearGradient><linearGradient id="i" gradientTransform="matrix(-.093759 0 0 .093759 48.135814 22.629198)" gradientUnits="userSpaceOnUse" x1="179.812897" x2="179.812897" y1="205.05838" y2="-197.108292"><stop offset="0" stop-color="#42a5f5"/><stop offset="1" stop-color="#64b5f6"/></linearGradient><path d="m7.691406 42.050781h32.496094v1.984375h-32.496094zm0 0" fill="url(#a)"/><path d="m40.1875 42.050781h3.96875v-1.984375h-3.96875zm0 0" fill="url(#c)"/><path d="m7.691406 42.050781h-3.96875v1.984375h3.96875zm0 0" fill="url(#d)"/><path d="m7.691406 42.050781h-3.96875v-1.984375h3.96875zm0 0" fill="url(#e)"/><path d="m40.1875 42.050781h3.96875v1.984375h-3.96875zm0 0" fill="url(#f)"/><path d="m5.457031 4.34375h36.714844c.820313 0 1.488281.667969 1.488281 1.488281v34.730469c0 .820312-.667968 1.488281-1.488281 1.488281h-36.714844c-.820312 0-1.488281-.667969-1.488281-1.488281v-34.730469c0-.820312.667969-1.488281 1.488281-1.488281zm0 0" fill="url(#g)"/><path d="m3.96875 40.066406v.496094c0 .824219.664062 1.488281 1.488281 1.488281h36.714844c.824219 0 1.488281-.664062 1.488281-1.488281v-.496094c0 .824219-.664062 1.488282-1.488281 1.488282h-36.714844c-.824219 0-1.488281-.664063-1.488281-1.488282zm0 0" fill-opacity=".235294"/><path d="m5.457031 4.34375c-.824219 0-1.488281.664062-1.488281 1.488281v.496094c0-.824219.664062-1.488281 1.488281-1.488281h36.714844c.824219 0 1.488281.664062 1.488281 1.488281v-.496094c0-.824219-.664062-1.488281-1.488281-1.488281zm0 0" fill="#fff" fill-opacity=".784314"/><path d="m5.457031 4.203125c-.898437 0-1.628906.730469-1.628906 1.628906v34.730469c0 .898438.730469 1.628906 1.628906 1.628906h36.714844c.898437 0 1.628906-.730468 1.628906-1.628906v-34.730469c0-.898437-.730469-1.628906-1.628906-1.628906zm0 .28125h36.714844c.75 0 1.347656.597656 1.347656 1.347656v34.730469c0 .75-.597656 1.347656-1.347656 1.347656h-36.714844c-.75 0-1.347656-.597656-1.347656-1.347656v-34.730469c0-.75.597656-1.347656 1.347656-1.347656zm0 0" fill="#212121"/><path d="m21.363281 12.558594c-.335937.007812-.660156.128906-.921875.34375l-9.921875 7.9375c-.355469.285156-.5625.714844-.5625 1.167968 0 .457032.207031.886719.5625 1.171876l9.921875 7.9375c.417969.34375.984375.433593 1.488282.242187.503906-.195313.867187-.644531.945312-1.179687.078125-.535157-.136719-1.070313-.5625-1.402344l-8.460938-6.769532 8.460938-6.765624c.507812-.398438.707031-1.074219.492188-1.683594-.214844-.609375-.792969-1.011719-1.441407-1zm0 0" fill="url(#h)"/><path d="m21.363281 12.558594c-.335937.007812-.660156.128906-.921875.34375l-9.921875 7.9375c-.445312.355468-.652343.933594-.527343 1.492187.074218-.335937.257812-.636719.527343-.847656l9.921875-7.941406c.261719-.214844.585938-.332031.921875-.339844.714844-.011719 1.339844.480469 1.492188 1.179687.210937-.949218-.523438-1.839843-1.492188-1.824218zm-7.429687 9.449218-.082032.644532 8.460938 6.769531c.273438.214844.464844.519531.542969.859375.121093-.5625-.089844-1.148438-.542969-1.503906zm0 0" fill="#fff" fill-opacity=".392157"/><path d="m22.84375 14.429688c-.082031.320312-.269531.605468-.53125.8125l-8.460938 6.765624.464844.375 7.996094-6.398437c.46875-.367187.679688-.976563.53125-1.554687zm-12.839844 7.953124c-.144531.570313.054688 1.171876.515625 1.539063l9.921875 7.941406c.5.410157 1.207032.453125 1.753906.105469.546876-.347656.808594-1.007812.648438-1.636719-.128906.496094-.5.894531-.988281 1.050781-.484375.160157-1.019531.058594-1.414063-.265624l-9.921875-7.9375c-.253906-.203126-.433593-.484376-.515625-.796876zm0 0" fill-opacity=".235294"/><path d="m26.316406 14.234375c.339844.007813.664063.128906.925782.34375l9.921874 7.9375c.355469.28125.5625.714844.5625 1.167969 0 .457031-.207031.886718-.5625 1.171875l-9.921874 7.9375c-.417969.339843-.988282.433593-1.492188.238281-.503906-.191406-.863281-.644531-.941406-1.175781-.078125-.535157.136718-1.070313.5625-1.402344l8.460937-6.769531-8.460937-6.769532c-.511719-.394531-.710938-1.074218-.496094-1.679687.214844-.609375.796875-1.011719 1.441406-1zm0 0" fill="url(#i)"/><path d="m26.316406 14.234375c.339844.007813.664063.128906.925782.339844l9.921874 7.941406c.445313.355469.648438.933594.527344 1.492187-.074218-.335937-.261718-.636718-.527344-.851562l-9.921874-7.9375c-.261719-.214844-.585938-.335938-.925782-.339844-.714844-.015625-1.335937.480469-1.488281 1.175782-.210937-.945313.519531-1.839844 1.488281-1.820313zm7.429688 9.449219.085937.644531-8.460937 6.765625c-.277344.214844-.46875.519531-.542969.859375-.125-.5625.085937-1.144531.542969-1.5zm0 0" fill="#fff" fill-opacity=".392157"/><path d="m24.839844 16.105469c.082031.320312.269531.605469.53125.808593l8.460937 6.769532-.464843.371094-7.996094-6.394532c-.472656-.367187-.679688-.976562-.53125-1.554687zm12.835937 7.949219c.148438.570312-.050781 1.175781-.511719 1.542968l-9.921874 7.9375c-.5.410156-1.210938.453125-1.753907.105469-.546875-.347656-.808593-1.007813-.648437-1.632813.128906.496094.5.890626.984375 1.050782.488281.160156 1.023437.058594 1.417969-.265625l9.921874-7.9375c.253907-.207031.433594-.484375.511719-.800781zm0 0" fill-opacity=".235294"/><g fill="none" stroke="#212121" stroke-linecap="round" stroke-linejoin="round" stroke-width="3" transform="matrix(.093759 0 0 .093759 0 20.158175)"><path d="m227.853241-81.054458c-3.582991.083326-7.040994 1.374869-9.832394 3.666317l-105.823228 84.658582c-3.791305 3.041376-5.999427 7.624272-5.999427 12.457144 0 4.874534 2.208122 9.45743 5.999427 12.498806l105.823228 84.658582c4.457907 3.666317 10.498997 4.624559 15.873484 2.583087 5.374487-2.083135 9.249117-6.874344 10.08237-12.582132.833254-5.707788-1.458194-11.415576-5.999427-14.956905l-90.241382-72.201438 90.241382-72.159776c5.41615-4.249594 7.540947-11.457239 5.249499-17.956619-2.291448-6.499379-8.457526-10.790636-15.373532-10.665648zm0 0"/><path d="m280.68153-63.181165c3.624653.083326 7.082657 1.374869 9.874057 3.666317l105.823227 84.658582c3.791305 2.999714 5.999427 7.624272 5.999427 12.457144 0 4.874534-2.208122 9.45743-5.999427 12.498806l-105.823227 84.658582c-4.457908 3.624654-10.54066 4.624559-15.915147 2.541424-5.374487-2.041471-9.207454-6.874343-10.040708-12.540469-.833254-5.707788 1.458194-11.415576 5.999427-14.956905l90.241382-72.201438-90.241382-72.201439c-5.457812-4.207931-7.582609-11.457239-5.291161-17.914955 2.291448-6.49938 8.499188-10.790637 15.373532-10.665649zm0 0"/></g></svg>

<?xml version="1.0" encoding="UTF-8"?>
<svg xmlns="http://www.w3.org/2000/svg" xmlns:xlink="http://www.w3.org/1999/xlink" width="48pt" height="48pt" viewBox="0 0 48 48" version="1.1">
<defs>
<linearGradient id="linear0" gradientUnits="userSpaceOnUse" x1="254" y1="233.5" x2="254" y2="254.666672" gradientTransform="matrix(0.093759,0,0,0.093759,-0.00000572259,20.158178)">
<stop offset="0" style="stop-color:rgb(0%,0%,0%);stop-opacity:0.27451;"/>
<stop offset="1" style="stop-color:rgb(0%,0%,0%);stop-opacity:0;"/>
</linearGradient>
<radialGradient id="radial0" gradientUnits="userSpaceOnUse" cx="450.908936" cy="189.579361" fx="450.908936" fy="189.579361" r="21.166656" gradientTransform="matrix(0.000000261256,-0.117199,-0.210958,-0.000000152308,79.684395,95.392999)">
<stop offset="0" style="stop-color:rgb(0%,0%,0%);stop-opacity:0.313726;"/>
<stop offset="0.222222" style="stop-color:rgb(0%,0%,0%);stop-opacity:0.27451;"/>
<stop offset="1" style="stop-color:rgb(0%,0%,0%);stop-opacity:0;"/>
</radialGradient>
<radialGradient id="radial1" gradientUnits="userSpaceOnUse" cx="450.908936" cy="189.579361" fx="450.908936" fy="189.579361" r="21.166656" gradientTransform="matrix(-0.000000261256,0.117199,0.210958,0.000000152308,-31.80678,-11.291218)">
<stop offset="0" style="stop-color:rgb(0%,0%,0%);stop-opacity:0.313726;"/>
<stop offset="0.222222" style="stop-color:rgb(0%,0%,0%);stop-opacity:0.27451;"/>
<stop offset="1" style="stop-color:rgb(0%,0%,0%);stop-opacity:0;"/>
</radialGradient>
<radialGradient id="radial2" gradientUnits="userSpaceOnUse" cx="450.908936" cy="189.579361" fx="450.908936" fy="189.579361" r="21.166656" gradientTransform="matrix(-0.000000261256,-0.117199,0.210958,-0.000000152308,-31.80678,95.392999)">
<stop offset="0" style="stop-color:rgb(0%,0%,0%);stop-opacity:0.313726;"/>
<stop offset="0.222222" style="stop-color:rgb(0%,0%,0%);stop-opacity:0.27451;"/>
<stop offset="1" style="stop-color:rgb(0%,0%,0%);stop-opacity:0;"/>
</radialGradient>
<radialGradient id="radial3" gradientUnits="userSpaceOnUse" cx="450.908936" cy="189.579361" fx="450.908936" fy="189.579361" r="21.166656" gradientTransform="matrix(0.000000261256,0.117199,-0.210958,0.000000152308,79.684393,-11.291219)">
<stop offset="0" style="stop-color:rgb(0%,0%,0%);stop-opacity:0.313726;"/>
<stop offset="0.222222" style="stop-color:rgb(0%,0%,0%);stop-opacity:0.27451;"/>
<stop offset="1" style="stop-color:rgb(0%,0%,0%);stop-opacity:0;"/>
</radialGradient>
<linearGradient id="linear1" gradientUnits="userSpaceOnUse" x1="254" y1="233.5" x2="254" y2="-168.666672" gradientTransform="matrix(0.093759,0,0,0.093759,0,20.158175)">
<stop offset="0" style="stop-color:rgb(87.843138%,87.843138%,87.843138%);stop-opacity:1;"/>
<stop offset="1" style="stop-color:rgb(93.333334%,93.333334%,93.333334%);stop-opacity:1;"/>
</linearGradient>
<linearGradient id="linear2" gradientUnits="userSpaceOnUse" x1="179.916672" y1="233.499985" x2="179.916672" y2="-168.666672" gradientTransform="matrix(0.093759,0,0,0.093759,-0.453622,20.954823)">
<stop offset="0" style="stop-color:rgb(49.411765%,34.117648%,76.078433%);stop-opacity:1;"/>
<stop offset="1" style="stop-color:rgb(58.431375%,45.882353%,80.392158%);stop-opacity:1;"/>
</linearGradient>
<linearGradient id="linear3" gradientUnits="userSpaceOnUse" x1="179.812897" y1="205.05838" x2="179.812897" y2="-197.108292" gradientTransform="matrix(-0.093759,0,0,0.093759,48.135814,22.629198)">
<stop offset="0" style="stop-color:rgb(25.882354%,64.705884%,96.078432%);stop-opacity:1;"/>
<stop offset="1" style="stop-color:rgb(39.215687%,70.980394%,96.470588%);stop-opacity:1;"/>
</linearGradient>
</defs>
<g id="surface1">
<path style=" stroke:none;fill-rule:nonzero;fill:url(#linear0);" d="M 7.691406 42.050781 L 40.1875 42.050781 L 40.1875 44.035156 L 7.691406 44.035156 Z M 7.691406 42.050781 "/>
<path style=" stroke:none;fill-rule:nonzero;fill:url(#radial0);" d="M 40.1875 42.050781 L 44.15625 42.050781 L 44.15625 40.066406 L 40.1875 40.066406 Z M 40.1875 42.050781 "/>
<path style=" stroke:none;fill-rule:nonzero;fill:url(#radial1);" d="M 7.691406 42.050781 L 3.722656 42.050781 L 3.722656 44.035156 L 7.691406 44.035156 Z M 7.691406 42.050781 "/>
<path style=" stroke:none;fill-rule:nonzero;fill:url(#radial2);" d="M 7.691406 42.050781 L 3.722656 42.050781 L 3.722656 40.066406 L 7.691406 40.066406 Z M 7.691406 42.050781 "/>
<path style=" stroke:none;fill-rule:nonzero;fill:url(#radial3);" d="M 40.1875 42.050781 L 44.15625 42.050781 L 44.15625 44.035156 L 40.1875 44.035156 Z M 40.1875 42.050781 "/>
<path style=" stroke:none;fill-rule:nonzero;fill:url(#linear1);" d="M 5.457031 4.34375 L 42.171875 4.34375 C 42.992188 4.34375 43.660156 5.011719 43.660156 5.832031 L 43.660156 40.5625 C 43.660156 41.382812 42.992188 42.050781 42.171875 42.050781 L 5.457031 42.050781 C 4.636719 42.050781 3.96875 41.382812 3.96875 40.5625 L 3.96875 5.832031 C 3.96875 5.011719 4.636719 4.34375 5.457031 4.34375 Z M 5.457031 4.34375 "/>
<path style=" stroke:none;fill-rule:nonzero;fill:rgb(0%,0%,0%);fill-opacity:0.235294;" d="M 3.96875 40.066406 L 3.96875 40.5625 C 3.96875 41.386719 4.632812 42.050781 5.457031 42.050781 L 42.171875 42.050781 C 42.996094 42.050781 43.660156 41.386719 43.660156 40.5625 L 43.660156 40.066406 C 43.660156 40.890625 42.996094 41.554688 42.171875 41.554688 L 5.457031 41.554688 C 4.632812 41.554688 3.96875 40.890625 3.96875 40.066406 Z M 3.96875 40.066406 "/>
<path style=" stroke:none;fill-rule:nonzero;fill:rgb(100%,100%,100%);fill-opacity:0.784314;" d="M 5.457031 4.34375 C 4.632812 4.34375 3.96875 5.007812 3.96875 5.832031 L 3.96875 6.328125 C 3.96875 5.503906 4.632812 4.839844 5.457031 4.839844 L 42.171875 4.839844 C 42.996094 4.839844 43.660156 5.503906 43.660156 6.328125 L 43.660156 5.832031 C 43.660156 5.007812 42.996094 4.34375 42.171875 4.34375 Z M 5.457031 4.34375 "/>
<path style=" stroke:none;fill-rule:nonzero;fill:rgb(12.941177%,12.941177%,12.941177%);fill-opacity:1;" d="M 5.457031 4.203125 C 4.558594 4.203125 3.828125 4.933594 3.828125 5.832031 L 3.828125 40.5625 C 3.828125 41.460938 4.558594 42.191406 5.457031 42.191406 L 42.171875 42.191406 C 43.070312 42.191406 43.800781 41.460938 43.800781 40.5625 L 43.800781 5.832031 C 43.800781 4.933594 43.070312 4.203125 42.171875 4.203125 Z M 5.457031 4.484375 L 42.171875 4.484375 C 42.921875 4.484375 43.519531 5.082031 43.519531 5.832031 L 43.519531 40.5625 C 43.519531 41.3125 42.921875 41.910156 42.171875 41.910156 L 5.457031 41.910156 C 4.707031 41.910156 4.109375 41.3125 4.109375 40.5625 L 4.109375 5.832031 C 4.109375 5.082031 4.707031 4.484375 5.457031 4.484375 Z M 5.457031 4.484375 "/>
<path style=" stroke:none;fill-rule:nonzero;fill:url(#linear2);" d="M 21.363281 12.558594 C 21.027344 12.566406 20.703125 12.6875 20.441406 12.902344 L 10.519531 20.839844 C 10.164062 21.125 9.957031 21.554688 9.957031 22.007812 C 9.957031 22.464844 10.164062 22.894531 10.519531 23.179688 L 20.441406 31.117188 C 20.859375 31.460938 21.425781 31.550781 21.929688 31.359375 C 22.433594 31.164062 22.796875 30.714844 22.875 30.179688 C 22.953125 29.644531 22.738281 29.109375 22.3125 28.777344 L 13.851562 22.007812 L 22.3125 15.242188 C 22.820312 14.84375 23.019531 14.167969 22.804688 13.558594 C 22.589844 12.949219 22.011719 12.546875 21.363281 12.558594 Z M 21.363281 12.558594 "/>
<path style=" stroke:none;fill-rule:nonzero;fill:rgb(100%,100%,100%);fill-opacity:0.392157;" d="M 21.363281 12.558594 C 21.027344 12.566406 20.703125 12.6875 20.441406 12.902344 L 10.519531 20.839844 C 10.074219 21.195312 9.867188 21.773438 9.992188 22.332031 C 10.066406 21.996094 10.25 21.695312 10.519531 21.484375 L 20.441406 13.542969 C 20.703125 13.328125 21.027344 13.210938 21.363281 13.203125 C 22.078125 13.191406 22.703125 13.683594 22.855469 14.382812 C 23.066406 13.433594 22.332031 12.542969 21.363281 12.558594 Z M 13.933594 22.007812 L 13.851562 22.652344 L 22.3125 29.421875 C 22.585938 29.636719 22.777344 29.941406 22.855469 30.28125 C 22.976562 29.71875 22.765625 29.132812 22.3125 28.777344 Z M 13.933594 22.007812 "/>
<path style=" stroke:none;fill-rule:nonzero;fill:rgb(0%,0%,0%);fill-opacity:0.235294;" d="M 22.84375 14.429688 C 22.761719 14.75 22.574219 15.035156 22.3125 15.242188 L 13.851562 22.007812 L 14.316406 22.382812 L 22.3125 15.984375 C 22.78125 15.617188 22.992188 15.007812 22.84375 14.429688 Z M 10.003906 22.382812 C 9.859375 22.953125 10.058594 23.554688 10.519531 23.921875 L 20.441406 31.863281 C 20.941406 32.273438 21.648438 32.316406 22.195312 31.96875 C 22.742188 31.621094 23.003906 30.960938 22.84375 30.332031 C 22.714844 30.828125 22.34375 31.226562 21.855469 31.382812 C 21.371094 31.542969 20.835938 31.441406 20.441406 31.117188 L 10.519531 23.179688 C 10.265625 22.976562 10.085938 22.695312 10.003906 22.382812 Z M 10.003906 22.382812 "/>
<path style=" stroke:none;fill-rule:nonzero;fill:url(#linear3);" d="M 26.316406 14.234375 C 26.65625 14.242188 26.980469 14.363281 27.242188 14.578125 L 37.164062 22.515625 C 37.519531 22.796875 37.726562 23.230469 37.726562 23.683594 C 37.726562 24.140625 37.519531 24.570312 37.164062 24.855469 L 27.242188 32.792969 C 26.824219 33.132812 26.253906 33.226562 25.75 33.03125 C 25.246094 32.839844 24.886719 32.386719 24.808594 31.855469 C 24.730469 31.320312 24.945312 30.785156 25.371094 30.453125 L 33.832031 23.683594 L 25.371094 16.914062 C 24.859375 16.519531 24.660156 15.839844 24.875 15.234375 C 25.089844 14.625 25.671875 14.222656 26.316406 14.234375 Z M 26.316406 14.234375 "/>
<path style=" stroke:none;fill-rule:nonzero;fill:rgb(100%,100%,100%);fill-opacity:0.392157;" d="M 26.316406 14.234375 C 26.65625 14.242188 26.980469 14.363281 27.242188 14.574219 L 37.164062 22.515625 C 37.609375 22.871094 37.8125 23.449219 37.691406 24.007812 C 37.617188 23.671875 37.429688 23.371094 37.164062 23.15625 L 27.242188 15.21875 C 26.980469 15.003906 26.65625 14.882812 26.316406 14.878906 C 25.601562 14.863281 24.980469 15.359375 24.828125 16.054688 C 24.617188 15.109375 25.347656 14.214844 26.316406 14.234375 Z M 33.746094 23.683594 L 33.832031 24.328125 L 25.371094 31.09375 C 25.09375 31.308594 24.902344 31.613281 24.828125 31.953125 C 24.703125 31.390625 24.914062 30.808594 25.371094 30.453125 Z M 33.746094 23.683594 "/>
<path style=" stroke:none;fill-rule:nonzero;fill:rgb(0%,0%,0%);fill-opacity:0.235294;" d="M 24.839844 16.105469 C 24.921875 16.425781 25.109375 16.710938 25.371094 16.914062 L 33.832031 23.683594 L 33.367188 24.054688 L 25.371094 17.660156 C 24.898438 17.292969 24.691406 16.683594 24.839844 16.105469 Z M 37.675781 24.054688 C 37.824219 24.625 37.625 25.230469 37.164062 25.597656 L 27.242188 33.535156 C 26.742188 33.945312 26.03125 33.988281 25.488281 33.640625 C 24.941406 33.292969 24.679688 32.632812 24.839844 32.007812 C 24.96875 32.503906 25.339844 32.898438 25.824219 33.058594 C 26.3125 33.21875 26.847656 33.117188 27.242188 32.792969 L 37.164062 24.855469 C 37.417969 24.648438 37.597656 24.371094 37.675781 24.054688 Z M 37.675781 24.054688 "/>
<path style="fill:none;stroke-width:3;stroke-linecap:round;stroke-linejoin:round;stroke:rgb(12.941177%,12.941177%,12.941177%);stroke-opacity:1;stroke-miterlimit:4;" d="M 227.853241 -81.054458 C 224.27025 -80.971132 220.812247 -79.679589 218.020847 -77.388141 L 112.197619 7.270441 C 108.406314 10.311817 106.198192 14.894713 106.198192 19.727585 C 106.198192 24.602119 108.406314 29.185015 112.197619 32.226391 L 218.020847 116.884973 C 222.478754 120.55129 228.519844 121.509532 233.894331 119.46806 C 239.268818 117.384925 243.143448 112.593716 243.976701 106.885928 C 244.809955 101.17814 242.518507 95.470352 237.977274 91.929023 L 147.735892 19.727585 L 237.977274 -52.432191 C 243.393424 -56.681785 245.518221 -63.88943 243.226773 -70.38881 C 240.935325 -76.888189 234.769247 -81.179446 227.853241 -81.054458 Z M 227.853241 -81.054458 " transform="matrix(0.093759,0,0,0.093759,0,20.158175)"/>
<path style="fill:none;stroke-width:3;stroke-linecap:round;stroke-linejoin:round;stroke:rgb(12.941177%,12.941177%,12.941177%);stroke-opacity:1;stroke-miterlimit:4;" d="M 280.68153 -63.181165 C 284.306183 -63.097839 287.764187 -61.806296 290.555587 -59.514848 L 396.378814 25.143734 C 400.170119 28.143448 402.378241 32.768006 402.378241 37.600878 C 402.378241 42.475412 400.170119 47.058308 396.378814 50.099684 L 290.555587 134.758266 C 286.097679 138.38292 280.014927 139.382825 274.64044 137.29969 C 269.265953 135.258219 265.432986 130.425347 264.599732 124.759221 C 263.766478 119.051433 266.057926 113.343645 270.599159 109.802316 L 360.840541 37.600878 L 270.599159 -34.600561 C 265.141347 -38.808492 263.01655 -46.0578 265.307998 -52.515516 C 267.599446 -59.014896 273.807186 -63.306153 280.68153 -63.181165 Z M 280.68153 -63.181165 " transform="matrix(0.093759,0,0,0.093759,0,20.158175)"/>
</g>
</svg>
